X: 235
T: Trip to Margate
%%VWML:Prestons1794-3056d-p99-0
F:http://www.vwml.org/record/Prestons1794/3056d/p99
Z: 2014 John Chambers <jc:trillian.mit.edu>
B: Preston "Twenty four Country Dances for the Year 1794" p.98 #1
F: http://www.vwml.org/browse/browse-collections-dance-tune-books/browse-prestons1794# 2014-8-10
M: 6/8
L: 1/8
K: F
|:\
fcf agf | edc b3 | agf efg | fcB AGF |\
fcf agf | edc b3 | agf efg | f3- f3 :|
|:\
AFA cBA | BGB dcB | AFA cBA | BGG G3 |\
AFA cBA | def gab | agf efg | f3- f3 :|
% - - - - - - - - - - - - - - - - - - - - - - - - -
%%begintext align
%% The 1st Lady hey with the 2d Gent.n and her
%% Part.r .| the 1st Gent.n hey with the 2d Lady &
%% his Part.r :| Cross over 1 Cu: & turn :|.
%% Right & left at top :|:
%%endtext
% - - - - - - - - - - - - - - - - - - - - - - - - -
T: the Vauxhall Gipsey
%R: jig
Z: 2014 John Chambers <jc:trillian.mit.edu>
B: Preston "Twenty four Country Dances for the Year 1794" p.98 #2
F: http://www.vwml.org/browse/browse-collections-dance-tune-books/browse-prestons1794# 2014-8-10
M: 6/8
L: 1/8
K: G
|:\
BcB ded | gag fed | efg dcB | ABG FED |\
BcB ded | gag fed | eag fdf | g3 G3 :|
|:\
AFA BGB | cAG FED | BGB cAc | dgf edc |\
BcB ded | gag fed | eag fdf | g3 G3 :|
% - - - - - - - - - - - - - - - - - - - - - - - - -
%%begintext align
%% Change sides & back again .|
%% Right hands across, left hands back again :|
%% Lead down the middle up again & cast off :|.
%% Hands 6 round :|:
%%endtext
% - - - - - - - - - - - - - - - - - - - - - - - - -
